icon_installer/data/icons/scalable/actions/show-storm-symbolic.svg

<?xml version="1.0" encoding="UTF-8"?>
<svg height="16px" viewBox="0 0 16 16" width="16px" xmlns="http://www.w3.org/2000/svg">
    <g fill="#222222">
        <path d="m 9.507812 0.0429688 c -1.269531 0 -2.304687 0.9726562 -2.445312 2.2187502 c -0.324219 -0.121094 -0.65625 -0.21875 -1.023438 -0.21875 c -1.644531 0 -2.976562 1.34375 -2.976562 3 c 0 0.097656 0.023438 0.1875 0.03125 0.28125 c -0.296875 -0.179688 -0.648438 -0.28125 -1.019531 -0.28125 c -1.097657 0 -1.9843752 0.898437 -1.9843752 2 c 0 1.105469 0.8164062 1.957031 1.9101562 1.957031 h 5 v -1.5 c -0.015625 -0.785156 0.738281 -1.472656 1.519531 -1.488281 c 0.796875 -0.015625 1.496094 0.683593 1.480469 1.488281 v 1.5 h 4.5 c 0.820312 0 1.453125 -0.628906 1.453125 -1.457031 s -0.664063 -1.5 -1.484375 -1.5 c -0.207031 0 -0.414062 0.050781 -0.589844 0.125 c 0.050782 -0.199219 0.09375 -0.40625 0.09375 -0.625 c 0 -1.226563 -0.886718 -2.226563 -2.046875 -2.4375 c 0.042969 -0.179688 0.0625 -0.367188 0.0625 -0.5625 c 0 -1.378907 -1.109375 -2.5000002 -2.480469 -2.5000002 z m 0 0"/>
        <path d="m 8.492188 6.992188 c -0.277344 0.007812 -0.496094 0.230468 -0.492188 0.507812 v 2.5 h -3 v 1 h -1.707031 l -2.648438 2.644531 c -0.195312 0.195313 -0.195312 0.515625 0 0.710938 c 0.195313 0.191406 0.511719 0.191406 0.707031 0 l 2.355469 -2.355469 h 1.292969 v 3 c 0 0.277344 0.222656 0.5 0.5 0.5 s 0.5 -0.222656 0.5 -0.5 v -3.425781 c 0.007812 -0.046875 0.007812 -0.101563 0 -0.148438 v -0.425781 h 2 v 0.707031 l 2 2 v 1.292969 c 0 0.277344 0.222656 0.5 0.5 0.5 s 0.5 -0.222656 0.5 -0.5 v -1 h 1.359375 l 2.382813 1.425781 c 0.15625 0.101563 0.351562 0.113281 0.511718 0.023438 c 0.164063 -0.085938 0.261719 -0.253907 0.265625 -0.4375 c 0 -0.183594 -0.101562 -0.351563 -0.261719 -0.4375 l -2.621093 -1.574219 h -1.929688 l -1.707031 -1.707031 v -0.71875 c 0.007812 -0.046875 0.007812 -0.101563 0 -0.148438 v -2.925781 c 0 -0.136719 -0.050781 -0.265625 -0.148438 -0.359375 c -0.09375 -0.097656 -0.222656 -0.148437 -0.359374 -0.148437 z m 0 0"/>
    </g>
</svg>

<svg xmlns="http://www.w3.org/2000/svg" width="16" height="16"><g fill="#222"><path d="M9.508.043c-1.27 0-2.305.973-2.445 2.219-.325-.121-.657-.219-1.024-.219-1.644 0-2.977 1.344-2.977 3 0 .098.024.187.032.281a1.968 1.968 0 0 0-1.02-.281 1.993 1.993 0 0 0-1.984 2C.09 8.148.906 9 2 9h5V7.5c-.016-.785.738-1.473 1.52-1.488.796-.016 1.496.683 1.48 1.488V9h4.5c.82 0 1.453-.629 1.453-1.457s-.664-1.5-1.484-1.5c-.207 0-.414.05-.59.125.05-.2.094-.406.094-.625a2.48 2.48 0 0 0-2.047-2.438 2.41 2.41 0 0 0 .062-.562 2.49 2.49 0 0 0-2.48-2.5zm0 0"/><path d="M8.492 6.992A.501.501 0 0 0 8 7.5V10H5v1H3.293L.645 13.645a.505.505 0 0 0 0 .71.507.507 0 0 0 .707 0L3.707 12H5v3a.499.499 0 1 0 1 0v-3.426a.473.473 0 0 0 0-.148V11h2v.707l2 2V15a.499.499 0 1 0 1 0v-1h1.36l2.382 1.426a.5.5 0 0 0 .777-.414.497.497 0 0 0-.261-.438L12.637 13h-1.93L9 11.293v-.719a.473.473 0 0 0 0-.148V7.5a.492.492 0 0 0-.148-.36.492.492 0 0 0-.36-.148zm0 0"/></g></svg>
